X: 1
T: Cliffs Of Dooneen, The
M: 3/4
L: 1/8
R: waltz
K: Dmix
|: (3DEG |\ 
A3 B d2 | B4 AG | E2 D2 D2 | D4 Bc |
d3 e d2 | B2 D2 EG | A3 G A2 | B4 Bc |
d2 e2 d2 | B2 D3 G | A3 B/A/ G>A | B4 BA |
G3 A Bd | B2 A3 G | E3 D D2 | D3 :|
